images/full-screen-flow/lead-pencil.svg

<svg height="24" viewBox="0 0 24 24" width="24" xmlns="http://www.w3.org/2000/svg"><path d="m16.84 2.73c-.39 0-.77.15-1.07.44l-2.12 2.12 5.3 5.31 2.12-2.1c.6-.61.6-1.56 0-2.14l-3.17-3.19c-.3-.29-.68-.44-1.06-.44m-3.9 3.27-8.1 8.11 2.56.28.18 2.29 2.28.17.29 2.56 8.1-8.11m-14 3.74-1.75 6.69 6.7-1.79-.24-2.16-2.31-.17-.18-2.32"/></svg>

<?xml version="1.0" encoding="UTF-8"?><!DOCTYPE svg PUBLIC "-//W3C//DTD SVG 1.1//EN" "http://www.w3.org/Graphics/SVG/1.1/DTD/svg11.dtd"><svg xmlns="http://www.w3.org/2000/svg" xmlns:xlink="http://www.w3.org/1999/xlink" version="1.1" width="24" height="24" viewBox="0 0 24 24"><path d="M16.84,2.73C16.45,2.73 16.07,2.88 15.77,3.17L13.65,5.29L18.95,10.6L21.07,8.5C21.67,7.89 21.67,6.94 21.07,6.36L17.9,3.17C17.6,2.88 17.22,2.73 16.84,2.73M12.94,6L4.84,14.11L7.4,14.39L7.58,16.68L9.86,16.85L10.15,19.41L18.25,11.3M4.25,15.04L2.5,21.73L9.2,19.94L8.96,17.78L6.65,17.61L6.47,15.29" /></svg>
